X:165
T:Mistress Winter's Jump
C:Dowland
L:1/8
M:3/4
O:England
Z:Andy Hornby
%%TUNEURL: http://www.leeds.ac.uk/music/Info/RRTuneBk/gettune/00000da4.html
%%ID:00000da4
K:G
d2g2d2|g4d2|e3d c2|B2G4|B2d4|A2c2B2|A3G A2|G6:|
|:F4G2|A4B2|c3d B2|A6|G2B2c2|d4d2|e3f g2|f6|
g2d2B2|d2B2G2|e2c2A2|a2f2d2|g4d2|g4d2|e3d c2|B2G4:|
